X: 2327
M: C
L: 1/8
K: D
(3(uGFE) |\
E2E2 EGBG | edcB AGFE |\
|: (uag) |\
fddd fdad | fgaf d2 [1 (ed) |\
cAAA cAeA | cdef g2 :|[2 (ef) |\
gbag fedc | e2d2 d2 :|


